default/images/icon/welcome-widgets-menus.svg

<svg xmlns="http://www.w3.org/2000/svg" viewBox="0 0 20 20"><rect x="0" fill="none" width="20" height="20"/><g><path d="M19 16V3c0-.55-.45-1-1-1H3c-.55 0-1 .45-1 1v13c0 .55.45 1 1 1h15c.55 0 1-.45 1-1zM4 4h13v4H4V4zm1 1v2h3V5H5zm4 0v2h3V5H9zm4 0v2h3V5h-3zm-8.5 5c.28 0 .5.22.5.5s-.22.5-.5.5-.5-.22-.5-.5.22-.5.5-.5zM6 10h4v1H6v-1zm6 0h5v5h-5v-5zm-7.5 2c.28 0 .5.22.5.5s-.22.5-.5.5-.5-.22-.5-.5.22-.5.5-.5zM6 12h4v1H6v-1zm7 0v2h3v-2h-3zm-8.5 2c.28 0 .5.22.5.5s-.22.5-.5.5-.5-.22-.5-.5.22-.5.5-.5zM6 14h4v1H6v-1z"/></g></svg>

<?xml version="1.0" encoding="utf-8"?>
<!-- Generator: Adobe Illustrator 24.3.0, SVG Export Plug-In . SVG Version: 6.00 Build 0)  -->
<svg version="1.1" id="レイヤー_1" xmlns="http://www.w3.org/2000/svg" xmlns:xlink="http://www.w3.org/1999/xlink" x="0px"
	 y="0px" viewBox="0 0 20 20" style="enable-background:new 0 0 20 20;" xml:space="preserve">
<style type="text/css">
	.st0{fill:none;}
	.st1{fill:#FFFFFF;}
</style>
<rect class="st0" width="20" height="20"/>
<g>
	<path class="st1" d="M19,16V3c0-0.5-0.5-1-1-1H3C2.5,2,2,2.5,2,3v13c0,0.5,0.5,1,1,1h15C18.5,17,19,16.5,19,16z M4,4h13v4H4V4z
		 M5,5v2h3V5H5z M9,5v2h3V5H9z M13,5v2h3V5H13z M4.5,10C4.8,10,5,10.2,5,10.5S4.8,11,4.5,11S4,10.8,4,10.5S4.2,10,4.5,10z M6,10h4v1
		H6V10z M12,10h5v5h-5V10z M4.5,12C4.8,12,5,12.2,5,12.5S4.8,13,4.5,13S4,12.8,4,12.5S4.2,12,4.5,12z M6,12h4v1H6V12z M13,12v2h3v-2
		H13z M4.5,14C4.8,14,5,14.2,5,14.5S4.8,15,4.5,15S4,14.8,4,14.5S4.2,14,4.5,14z M6,14h4v1H6V14z"/>
</g>
</svg>
